!!!COM: Music21
!!!OTL: jig_Oscar-Woods
!!!OMV: jig_Oscar-Woods
**kern
*clefG2
*k[f#]
*G:
*M6/8
=1
8bL
8a
8gJ
8bL
8a
8gJ
=
8bL
8cc
8bJ
8ddL
8ee
8ddJ
=
8gL
8b
8gJ
8bL
8a
8gJ
=
4a
[8a
8aL]
8ee
8ddJ
=
8bL
8a
8gJ
8bL
8a
8gJ
=
8ddL
8ee
8ddJ
4ee
8ee
=
4dd
[8gg
8ggL]
8a
8gJ
!!linebreak:original
=
4.a
4.g
=||
*M6/8
8bL
8a
8gJ
8bL
8a
8gJ
=
8bL
8cc
8bJ
8ddL
8ee
8ddJ
=
8gL
8b
8gJ
8bL
8a
8gJ
=
4a
[8a
8aL]
8ee
8ddJ
=
8bL
8a
8gJ
8bL
8a
8gJ
!!linebreak:original
=
8ddL
8ee
8ddJ
4ee
8ee
=
4dd
[8gg
8ggL]
8a
8gJ
=
4.a
4.g
=||
4b
[8dd
8ddL]
8dd
8bJ
=
4cc
[8ee
4ee]
[8b
=
4b]
[8dd
8ddL]
8a
8gJ
=
4a
[8a
4a]
[8g
=
4g]
[8dd
8ddL]
8dd
8bJ
!!linebreak:original
=
4cc
[8ee
4ee]
[8dd
=
4dd]
[8gg
8ggL]
8a
8gJ
=
4.a
4.g
=||
4b
[8dd
8ddL]
8dd
8bJ
=
4cc
[8ee
4ee]
[8b
=
4b]
[8dd
8ddL]
8a
8gJ
=
4a
[8a
4a]
[8g
=
4g]
[8dd
8ddL]
8dd
8bJ
!!linebreak:original
=
4cc
[8ee
4ee]
[8dd
=
4dd]
[8gg
8ggL]
8a
8gJ
=
4.a
4.g
=||
*-
